logos/crucible.svg

<?xml version="1.0" encoding="UTF-8"?>
<svg width="256px" height="264px" viewBox="0 0 256 264" version="1.1" xmlns="http://www.w3.org/2000/svg" xmlns:xlink="http://www.w3.org/1999/xlink" preserveAspectRatio="xMidYMid">
    <defs>
        <linearGradient x1="50%" y1="99.3303571%" x2="50%" y2="1.78571429%" id="linearGradient-1">
            <stop stop-color="#0052CC" offset="18%"></stop>
            <stop stop-color="#2684FF" offset="100%"></stop>
        </linearGradient>
    </defs>
    <g>
				<path d="M128,0 C57.299639,0 0,24.1549065 0,53.8969478 C0.0268595606,55.4195179 0.181433131,56.9371494 0.462093863,58.4338694 L23.0206761,176.813915 C32.5372737,227.31583 76.6512606,263.893368 128.042009,263.893368 C179.432756,263.893368 223.546743,227.31583 233.063341,176.813915 L255.537906,58.4338694 C255.816241,56.9509604 255.970804,55.4474777 256,53.9389564 C256,24.1549065 198.700361,0 128,0 Z M128,196.053823 C91.032491,196.053823 94.0991139,110.146373 52.6787004,97.4597965 C49.2340007,96.4095832 45.9573351,95.2753528 42.7646866,94.0571053 C70.1608199,84.5580566 99.0071161,79.9233141 128,80.3623236 C156.992884,79.9233141 185.83918,84.5580566 213.235313,94.0571053 C210.042665,95.2333443 206.765999,96.4095832 203.3213,97.4597965 C161.900886,110.062356 165.009518,196.053823 128,196.053823 Z" fill="#2684FF"></path>
				<path d="M42.7646866,94.0991139 C70.1606084,84.5992247 99.0070536,79.9644582 128,80.4043321 C156.992946,79.9644582 185.839392,84.5992247 213.235313,94.0991139 C239.448638,84.2271086 256,69.9021989 256,53.8969478 C256,24.1549065 198.700361,0 128,0 C57.299639,0 0,24.1549065 0,53.8969478 C0,69.8601904 16.5093535,84.2271086 42.7646866,94.0991139 Z" fill="url(#linearGradient-1)"></path>
		</g>
</svg>

<svg width="256" height="264" xmlns="http://www.w3.org/2000/svg" preserveAspectRatio="xMidYMid">
	<defs>
		<linearGradient x1="50%" y1="99.33%" x2="50%" y2="1.786%" id="a">
			<stop stop-color="#0052CC" offset="18%"/>
			<stop stop-color="#2684FF" offset="100%"/>
		</linearGradient>
	</defs>
	<path d="M128 0C57.3 0 0 24.155 0 53.897c.027 1.523.181 3.04.462 4.537l22.559 118.38c9.516 50.502 53.63 87.08 105.021 87.08 51.39 0 95.505-36.578 105.021-87.08l22.475-118.38c.278-1.483.433-2.987.462-4.495C256 24.155 198.7 0 128 0Zm0 196.054c-36.968 0-33.9-85.908-75.321-98.594a152.13 152.13 0 0 1-9.914-3.403A248.69 248.69 0 0 1 128 80.362a248.69 248.69 0 0 1 85.235 13.695c-3.192 1.176-6.469 2.353-9.914 3.403-41.42 12.602-38.311 98.594-75.321 98.594Z" fill="#2684FF"/>
	<path d="M42.765 94.1A248.649 248.649 0 0 1 128 80.403 248.649 248.649 0 0 1 213.235 94.1C239.45 84.227 256 69.902 256 53.897 256 24.155 198.7 0 128 0S0 24.155 0 53.897c0 15.963 16.51 30.33 42.765 40.202Z" fill="url(#a)"/>
</svg>
